X:4831
T:Ennis, Young Tom
M:6/8
L:1/8
K:A Dorian
B|cBA BcB|AGE GAB|cBA Bed|cAA A2B|!
cBA BcB|AGE GAB|cde ded|BAA A2:|!
f|g2e age|dBG Gef|g2e agf|efg a2f|!
g2e age|dBG GAB|cBA Bed|cAA A2:|!
